!!!SOCIAL_FUNCTION:	memorial ceremony songs
!!!PDT:	1932
!!!OTL: No_29_The_Superman_Grows_Weaker.krn
!!!REG: Southwest
!!!LANG: Non-Tone
!!!LING_GROUP: Yuman-Cochimi
**kern	**kern
*staff2	*staff1
=1-	=1-
*clefF4	*clefF4
*k[f#c#g#d#a#]	*k[f#c#g#d#a#]
*M2/4	*M2/4
8GG#/L	8F#\L
8GG#/J	8c#\J
8GG#/L	8c#\L
8GG#/J	(8c#\J
=2	=2
8GG#/L	4c#\)
8GG#/J	.
8GG#/L	16B\
.	16r
8GG#/J	8G#\
=3	=3
2r	8B\L
.	8c#\J
.	8c#\L
.	8c#\J
=4	=4
2r	4B\
.	32G#\LLK
.	16F#\JJ
.	32r
.	8F#\
=5	=5
2r	16G#\LL
.	16F#\J
.	8B\J
.	8B\L
.	8B\J
=6||	=6||
*M3/4	*M3/4
2.r	16G#\LL
.	16F#\J
.	8F#\J
.	4F#\
.	8r
.	8F#\
=7||	=7||
*M2/4	*M2/4
2r	8F#\L
.	8F#\J
.	8F#\L
.	8F#\J
=8||	=8||
*M3/4	*M3/4
2.r	4F#\
.	4F#\
.	4r
=9||	=9||
*M2/4	*M2/4
2r	8F#\L
.	8B\J
.	8B\L
.	8c#\J
=10	=10
2r	4B\
.	32G#\LLK
.	16F#\JJ
.	32r
.	8F#\
=11	=11
2r	16G#\LL
.	16F#\J
.	8B\J
.	8B\L
.	8B\J
=12||	=12||
*M3/4	*M3/4
2.r	16G#\LL
.	16F#\J
.	8F#\J
.	4F#\
.	8r
.	8F#\
=13||	=13||
*M2/4	*M2/4
2r	8F#\L
.	8F#\J
.	8F#\L
.	8F#\J
=14	=14
2r	4F#\
.	4F#\
==	==
*-	*-
